X: 4247
T: PIPER' MARCH
%R: march, jig
B: James Kerr "Merry Melodies" v.4 p.27 #247
Z: 2016 John Chambers <jc:trillian.mit.edu>
M: 6/8
L: 1/8
K: D
f |\
dcB B2f | dcB B2e | cBA A2e | cBA A2f |\
dcB B2f | dcB B2A | Bde f2e | dBB B2 :|
|: d |\
Bde f2e | f2e f2e | Acd e2c | e2c e2c |\
Bde f2e | f2e f2e | Bde f2e | dBB B2 :|

%%sep 1 1 500
%%sep 1 1 500

